X:668
T:
N:Angläs;
S:från Gotlands fornsal.
R:kadrilj
O:Gotland
M:2/4
L:1/16
K:F
cAFA c2f2|dBFB d2f2|cAFA c2f2|efge f4::afcf a2c'2|b2a2 g4|gece g2b2|abag
f4|cAFA c2f2|dBFB d2f2|cAFA c2f2|efge f4:|

